svg/fluentui-system-icons/ic_fluent_phone_dismiss_20_filled.svg

<svg width="20" height="20" viewBox="0 0 20 20" fill="none" xmlns="http://www.w3.org/2000/svg">
<path d="M5.5 2C4.67157 2 4 2.67157 4 3.5V16.5C4 17.3284 4.67157 18 5.5 18H10.2572C9.57137 17.1696 9.12465 16.1345 9.02242 15H7.5C7.22386 15 7 14.7761 7 14.5C7 14.2239 7.22386 14 7.5 14H9.02242C9.2602 11.3614 11.3614 9.2602 14 9.02242V3.5C14 2.67157 13.3284 2 12.5 2H5.5ZM14.5 19C16.9853 19 19 16.9853 19 14.5C19 12.0147 16.9853 10 14.5 10C12.0147 10 10 12.0147 10 14.5C10 16.9853 12.0147 19 14.5 19ZM16.3536 12.6464C16.5488 12.8417 16.5488 13.1583 16.3536 13.3536L15.2071 14.5L16.3536 15.6464C16.5488 15.8417 16.5488 16.1583 16.3536 16.3536C16.1583 16.5488 15.8417 16.5488 15.6464 16.3536L14.5 15.2071L13.3536 16.3536C13.1583 16.5488 12.8417 16.5488 12.6464 16.3536C12.4512 16.1583 12.4512 15.8417 12.6464 15.6464L13.7929 14.5L12.6464 13.3536C12.4512 13.1583 12.4512 12.8417 12.6464 12.6464C12.8417 12.4512 13.1583 12.4512 13.3536 12.6464L14.5 13.7929L15.6464 12.6464C15.8417 12.4512 16.1583 12.4512 16.3536 12.6464Z" fill="#212121"/>
</svg>

<svg xmlns="http://www.w3.org/2000/svg" width="20" height="20"><path d="M5.5 2A1.5 1.5 0 0 0 4 3.5v13A1.5 1.5 0 0 0 5.5 18h4.757a5.475 5.475 0 0 1-1.235-3H7.5a.5.5 0 0 1 0-1h1.522A5.501 5.501 0 0 1 14 9.022V3.5A1.5 1.5 0 0 0 12.5 2h-7Zm9 17a4.5 4.5 0 1 0 0-9 4.5 4.5 0 0 0 0 9Zm1.854-6.354a.5.5 0 0 1 0 .708L15.207 14.5l1.147 1.146a.5.5 0 0 1-.708.708L14.5 15.207l-1.146 1.147a.5.5 0 0 1-.708-.708l1.147-1.146-1.147-1.146a.5.5 0 0 1 .708-.708l1.146 1.147 1.146-1.147a.5.5 0 0 1 .708 0Z"/></svg>
